svg/Pictogram/pictograms-nps-misc-stay_on_trail.svg

<svg xmlns="http://www.w3.org/2000/svg" viewBox="0 0 256 256"><path d="m0 0c-.541 0-.981-.44-.981-.981v-7.528c0-.541.44-.981.981-.981h7.527c.541 0 .982.44.982.981v7.528c0 .541-.441.981-.982.981h-7.527" fill="#fff" transform="matrix(25.88211 0 0-25.88211 30.585 5.189)"/><path d="m0 0c.652 0 1.182.529 1.182 1.182v7.527c0 .652-.53 1.182-1.182 1.182h-7.527c-.653 0-1.182-.53-1.182-1.182v-7.527c0-.653.529-1.182 1.182-1.182h7.527" transform="matrix(25.88211 0 0-25.88211 225.41 256)"/><g fill="#fff"><path d="m0 0c.326-.025.611.219.637.543.025.328-.218.611-.544.639-.325.025-.611-.219-.638-.545-.025-.326.219-.612.545-.637" transform="matrix(25.88211 0 0-25.88211 136.94 53.14)"/><path d="m0 0c.117.082.26.137.414.125.205-.018.373-.143.473-.297l.597-1.185.816-.561c.069-.053.111-.141.104-.232-.011-.149-.14-.258-.288-.246-.044.003-.079.019-.122.039l-.889.613c-.027.021-.05.049-.066.078l-.225.443-.267-1.181 1.051-1.241c.022-.039.039-.082.048-.126l.284-1.5c-.002-.034.004-.053.002-.083-.018-.22-.211-.384-.432-.367-.182.014-.318.151-.361.317l-.269 1.404-.852.936-.2-.911c-.006-.043-.062-.132-.08-.17l-.818-1.38c-.082-.127-.219-.207-.375-.196-.221.018-.387.211-.369.432.005.062.031.127.054.172l.762 1.279.633 2.813-.414-.334-.219-1c-.029-.127-.146-.233-.285-.221-.147.012-.258.139-.246.287.002.012.003.024.006.035l.262 1.17c.013.051.042.096.082.129l1.189.963" transform="matrix(25.88211 0 0-25.88211 123.95 59.46)"/><path d="m0 0c-.046-.014.037-.014 0-.014-.038.024.037.047 0 .047-.485.049-1.097.074-1.581.026-.037 0-.186-.079-.223-.079-.447-.023-.709.03-1.119-.043-.634-.095-1.267.049-1.939-.023-.596-.049-1.231 0-1.864-.025-.298.218-.827.121-1.248.111v-.807h7.974v.807" transform="matrix(25.88211 0 0-25.88211 232.05 212.88)"/></g></svg>

<?xml version="1.0" encoding="UTF-8" standalone="no"?>
<!-- Created with Inkscape (http://www.inkscape.org/) -->
<svg
   xmlns:dc="http://purl.org/dc/elements/1.1/"
   xmlns:cc="http://creativecommons.org/ns#"
   xmlns:rdf="http://www.w3.org/1999/02/22-rdf-syntax-ns#"
   xmlns:svg="http://www.w3.org/2000/svg"
   xmlns="http://www.w3.org/2000/svg"
   xmlns:sodipodi="http://sodipodi.sourceforge.net/DTD/sodipodi-0.dtd"
   xmlns:inkscape="http://www.inkscape.org/namespaces/inkscape"
   width="256"
   height="256"
   id="svg5294"
   sodipodi:version="0.32"
   inkscape:version="0.46"
   version="1.0"
   sodipodi:docname="pictograms-nps-misc-stay_on_trail-2.svg"
   inkscape:output_extension="org.inkscape.output.svg.inkscape">
  <defs
     id="defs5296">
    <inkscape:perspective
       sodipodi:type="inkscape:persp3d"
       inkscape:vp_x="0 : 526.18109 : 1"
       inkscape:vp_y="0 : 1000 : 0"
       inkscape:vp_z="744.09448 : 526.18109 : 1"
       inkscape:persp3d-origin="372.04724 : 350.78739 : 1"
       id="perspective5302" />
  </defs>
  <sodipodi:namedview
     id="base"
     pagecolor="#ffffff"
     bordercolor="#666666"
     borderopacity="1.0"
     gridtolerance="10000"
     guidetolerance="10"
     objecttolerance="10"
     inkscape:pageopacity="0.0"
     inkscape:pageshadow="2"
     inkscape:zoom="0.98994949"
     inkscape:cx="112.80911"
     inkscape:cy="62.857143"
     inkscape:document-units="px"
     inkscape:current-layer="layer1"
     showgrid="false"
     inkscape:window-width="725"
     inkscape:window-height="674"
     inkscape:window-x="1"
     inkscape:window-y="309" />
  <metadata
     id="metadata5299">
    <rdf:RDF>
      <cc:Work
         rdf:about="">
        <dc:format>image/svg+xml</dc:format>
        <dc:type
           rdf:resource="http://purl.org/dc/dcmitype/StillImage" />
      </cc:Work>
    </rdf:RDF>
  </metadata>
  <g
     inkscape:label="Layer 1"
     inkscape:groupmode="layer"
     id="layer1">
    <g
       id="g6350"
       transform="matrix(25.882115,0,0,-25.882115,30.584999,5.1890535)">
      <path
         d="M 0,0 C -0.541,0 -0.981,-0.44 -0.981,-0.981 L -0.981,-8.509 C -0.981,-9.05 -0.541,-9.49 0,-9.49 L 7.527,-9.49 C 8.068,-9.49 8.509,-9.05 8.509,-8.509 L 8.509,-0.981 C 8.509,-0.44 8.068,0 7.527,0 L 0,0 z"
         style="fill:#ffffff;fill-opacity:1;fill-rule:nonzero;stroke:none"
         id="path6352" />
    </g>
    <g
       id="g6354"
       transform="matrix(25.882115,0,0,-25.882115,225.40734,256)">
      <path
         d="M 0,0 C 0.652,0 1.182,0.529 1.182,1.182 L 1.182,8.709 C 1.182,9.361 0.652,9.891 0,9.891 L -7.527,9.891 C -8.18,9.891 -8.709,9.361 -8.709,8.709 L -8.709,1.182 C -8.709,0.529 -8.18,0 -7.527,0 L 0,0 z"
         style="fill:#000000;fill-opacity:1;fill-rule:nonzero;stroke:none"
         id="path6356" />
    </g>
    <g
       id="g6358"
       transform="matrix(25.882115,0,0,-25.882115,136.94227,53.13826)">
      <path
         d="M 0,0 C 0.326,-0.025 0.611,0.219 0.637,0.543 C 0.662,0.871 0.419,1.154 0.093,1.182 C -0.232,1.207 -0.518,0.963 -0.545,0.637 C -0.57,0.311 -0.326,0.025 0,0"
         style="fill:#ffffff;fill-opacity:1;fill-rule:nonzero;stroke:none"
         id="path6360" />
    </g>
    <g
       id="g6362"
       transform="matrix(25.882115,0,0,-25.882115,123.95193,59.456188)">
      <path
         d="M 0,0 C 0.117,0.082 0.26,0.137 0.414,0.125 C 0.619,0.107 0.787,-0.018 0.887,-0.172 L 1.484,-1.357 L 2.3,-1.918 C 2.369,-1.971 2.411,-2.059 2.404,-2.15 C 2.393,-2.299 2.264,-2.408 2.116,-2.396 C 2.072,-2.393 2.037,-2.377 1.994,-2.357 L 1.105,-1.744 C 1.078,-1.723 1.055,-1.695 1.039,-1.666 L 0.814,-1.223 L 0.547,-2.404 L 1.598,-3.645 C 1.62,-3.684 1.637,-3.727 1.646,-3.771 L 1.93,-5.271 C 1.928,-5.305 1.934,-5.324 1.932,-5.354 C 1.914,-5.574 1.721,-5.738 1.5,-5.721 C 1.318,-5.707 1.182,-5.57 1.139,-5.404 L 0.87,-4 L 0.018,-3.064 L -0.182,-3.975 C -0.188,-4.018 -0.244,-4.107 -0.262,-4.145 L -1.08,-5.525 C -1.162,-5.652 -1.299,-5.732 -1.455,-5.721 C -1.676,-5.703 -1.842,-5.51 -1.824,-5.289 C -1.819,-5.227 -1.793,-5.162 -1.77,-5.117 L -1.008,-3.838 L -0.375,-1.025 L -0.789,-1.359 L -1.008,-2.363 C -1.037,-2.49 -1.154,-2.596 -1.293,-2.584 C -1.44,-2.572 -1.551,-2.445 -1.539,-2.297 C -1.537,-2.285 -1.536,-2.273 -1.533,-2.262 L -1.271,-1.092 C -1.258,-1.041 -1.229,-0.996 -1.189,-0.963 L 0,0 z"
         style="fill:#ffffff;fill-opacity:1;fill-rule:nonzero;stroke:none"
         id="path6364" />
    </g>
    <g
       id="g6366"
       transform="matrix(25.882115,0,0,-25.882115,232.05366,212.8804)">
      <path
         d="M 0,0 C -0.046,-0.014 0.037,-0.014 0,-0.014 C -0.038,0.01 0.037,0.033 0,0.033 C -0.485,0.082 -1.097,0.107 -1.581,0.059 C -1.618,0.059 -1.767,-0.02 -1.804,-0.02 C -2.251,-0.043 -2.513,0.01 -2.923,-0.063 C -3.557,-0.158 -4.19,-0.014 -4.862,-0.086 C -5.458,-0.135 -6.093,-0.086 -6.726,-0.111 C -7.024,0.107 -7.553,0.01 -7.974,0 L -7.974,-0.807 L 0,-0.807 L 0,0 z"
         style="fill:#ffffff;fill-opacity:1;fill-rule:nonzero;stroke:none"
         id="path6368" />
    </g>
  </g>
</svg>
